symbols/web/biotech/materialsymbolsrounded/biotech_wght600_20px.svg

<svg xmlns="http://www.w3.org/2000/svg" height="20" width="20"><path d="M5.042 17.667q-.417 0-.73-.313Q4 17.042 4 16.625t.312-.729q.313-.313.73-.313h3.146v-1.229q-1.792-.062-2.99-1.323Q4 11.771 4 10q0-1.208.646-2.229.646-1.021 1.729-1.563.125-.729.656-1.239.531-.511 1.24-.677l-.083-.188q-.084-.437.083-.791.167-.355.583-.584h-.042q-.041-.396.126-.687.166-.292.541-.459.375-.145.719-.01.344.135.573.489l-.021-.02q.417-.063.771.146.354.208.521.604l1.75 4.812q.125.334.02.771-.104.437-.583.646h.021L13.229 9q.146.354-.052.667-.198.312-.573.458-.396.146-.739 0-.344-.146-.532-.437v.02q-.562.042-.885-.135-.323-.177-.469-.511l-.104-.25q-.25.167-.573.24-.323.073-.656.073-.5-.021-.959-.208-.458-.188-.791-.584-.375.313-.594.75-.219.438-.219.917 0 .938.667 1.604.667.667 1.604.667h5.667q.417 0 .729.312.312.313.312.729 0 .417-.312.73-.312.312-.729.312h-2.813v1.229h3.75q.417 0 .73.313.312.312.312.729t-.312.729q-.313.313-.73.313Zm6.312-9.75.771-.313-1.437-3.812-.771.312ZM8.729 7.5q.333 0 .573-.24.24-.239.24-.572 0-.334-.24-.573-.24-.24-.573-.24-.333 0-.573.24-.239.239-.239.573 0 .333.239.572.24.24.573.24Zm2.625.417ZM8.729 6.688Zm0 0Z"/></svg>

<svg xmlns="http://www.w3.org/2000/svg" height="20" width="20"><path d="M5.042 17.667Q4.625 17.667 4.312 17.354Q4 17.042 4 16.625Q4 16.208 4.312 15.896Q4.625 15.583 5.042 15.583H8.188V14.354Q6.396 14.292 5.198 13.031Q4 11.771 4 10Q4 8.792 4.646 7.771Q5.292 6.75 6.375 6.208Q6.5 5.479 7.031 4.969Q7.562 4.458 8.271 4.292L8.188 4.104Q8.104 3.667 8.271 3.313Q8.438 2.958 8.854 2.729H8.812Q8.771 2.333 8.938 2.042Q9.104 1.75 9.479 1.583Q9.854 1.438 10.198 1.573Q10.542 1.708 10.771 2.062L10.75 2.042Q11.167 1.979 11.521 2.188Q11.875 2.396 12.042 2.792L13.792 7.604Q13.917 7.938 13.812 8.375Q13.708 8.812 13.229 9.021H13.25L13.229 9Q13.375 9.354 13.177 9.667Q12.979 9.979 12.604 10.125Q12.208 10.271 11.865 10.125Q11.521 9.979 11.333 9.688V9.708Q10.771 9.75 10.448 9.573Q10.125 9.396 9.979 9.062L9.875 8.812Q9.625 8.979 9.302 9.052Q8.979 9.125 8.646 9.125Q8.146 9.104 7.687 8.917Q7.229 8.729 6.896 8.333Q6.521 8.646 6.302 9.083Q6.083 9.521 6.083 10Q6.083 10.938 6.75 11.604Q7.417 12.271 8.354 12.271H14.021Q14.438 12.271 14.75 12.583Q15.062 12.896 15.062 13.312Q15.062 13.729 14.75 14.042Q14.438 14.354 14.021 14.354H11.208V15.583H14.958Q15.375 15.583 15.688 15.896Q16 16.208 16 16.625Q16 17.042 15.688 17.354Q15.375 17.667 14.958 17.667ZM11.354 7.917 12.125 7.604 10.688 3.792 9.917 4.104ZM8.729 7.5Q9.062 7.5 9.302 7.26Q9.542 7.021 9.542 6.688Q9.542 6.354 9.302 6.115Q9.062 5.875 8.729 5.875Q8.396 5.875 8.156 6.115Q7.917 6.354 7.917 6.688Q7.917 7.021 8.156 7.26Q8.396 7.5 8.729 7.5ZM11.354 7.917ZM8.729 6.688Q8.729 6.688 8.729 6.688Q8.729 6.688 8.729 6.688Q8.729 6.688 8.729 6.688Q8.729 6.688 8.729 6.688Q8.729 6.688 8.729 6.688Q8.729 6.688 8.729 6.688Q8.729 6.688 8.729 6.688Q8.729 6.688 8.729 6.688ZM8.729 6.688Q8.729 6.688 8.729 6.688Q8.729 6.688 8.729 6.688Q8.729 6.688 8.729 6.688Q8.729 6.688 8.729 6.688Q8.729 6.688 8.729 6.688Q8.729 6.688 8.729 6.688Q8.729 6.688 8.729 6.688Q8.729 6.688 8.729 6.688Z"/></svg>
